WordPressTheme/assets/images/common/not-found-img.svg

<svg width="698" height="698" fill="none" xmlns="http://www.w3.org/2000/svg"><path d="M624.509 319.682a19.802 19.802 0 00-2.669-9.514c-4.722-8.226-15.11-13.461-30.852-15.561-9.109-1.215-17.674-2.704-25.456-4.424a281.266 281.266 0 00-72.722-6.483 583.207 583.207 0 00-61.383 5.567c-4.311.655-9.318 1.454-14.869 2.343-41.223 6.581-125.092 19.969-177.185 9.649-7.077-13.361-8.296-25.299-3.62-35.516 10.154-22.191 44.533-32.587 56.98-35.687 14.734 22.511 33.463 36.364 55.713 41.201 41.385 8.994 79.504-16.629 81.107-17.721a6.947 6.947 0 00.203-11.319 6.944 6.944 0 00-4.12-1.358 21.8 21.8 0 01-10.529-3.587 45.127 45.127 0 01-16.405-17.365c-14.182-26.13-34.654-35.871-46.413-39.439 23.933-57.325-7.186-94.793-8.588-96.43l-.191-.204c-7.505-8.085-3.284-22.74-3.245-22.864a6.944 6.944 0 00-9.649-8.286c-33.053 15.822-52.734 45.298-56.926 85.238a171.57 171.57 0 001.591 45.475 270.763 270.763 0 00-47.834 1.027c-6.278.616-125.459 13.393-178.355 107.588-23.28 41.457-25.457 91.231-5.826 133.142 16.013 34.193 42.485 60.506 78.718 78.35a142.114 142.114 0 00-25.742 38.078c-22.416 48.564-69.8 41.439-71.792 41.112a6.946 6.946 0 00-5.93 11.893c22.524 21.309 51.26 33.863 79.204 31.888 53.023-3.746 96.425-49.552 112.612-69.264a174.1 174.1 0 0122.116-22.708c.302.03.606.041.91.031 33.707-2.149 76.936.185 77.264.206 1.142.08 2.258.135 3.396.205a104.818 104.818 0 00-31.215 34.984c-11.154 20.01-39.731 61.794-83.945 62.091a56.397 56.397 0 0021.921-52.387 6.95 6.95 0 00-2.528-4.737 6.957 6.957 0 00-5.15-1.518 6.94 6.94 0 00-5.93 5.051 6.958 6.958 0 00-.196 2.732 43.904 43.904 0 01-6.844 29.589 46.832 46.832 0 01-25.697 18.236 6.947 6.947 0 00-5.501 6.571 6.942 6.942 0 005.068 6.911 91.911 91.911 0 0024.824 3.529c51.293 0 83.584-46.836 96.111-69.314a89.783 89.783 0 0130.716-32.82c4.867-3 9.973-5.595 15.266-7.758.082-.035.149-.086.229-.123 2.172.026 4.346.057 6.494.057 140.819 0 225.949-58.215 257.519-84.879a41.703 41.703 0 0126.858-9.854h17.194a36.05 36.05 0 0020.303-5.933c15.311-10.338 13.186-27.015 9.413-35.838.263-10.616-1.425-60.486-54.423-79.853zM199.603 548.4c-11.73 14.282-53.803 61.134-102.752 64.216-18.92 1.191-37.123-4.276-54.327-16.272 19.858-2.35 49.454-12.379 66.386-49.065.187-.427 19.103-42.87 48.715-50.272a6.946 6.946 0 00-3.367-13.476 60.91 60.91 0 00-20.813 10.018c-36.08-16.44-62.204-41.405-77.601-74.285-17.738-37.863-15.734-82.89 5.358-120.448 49.568-88.277 166.494-100.463 167.668-100.574.031 0 .057-.014.088-.019.031-.004.06 0 .088 0 .296-.034 29.6-3.502 53.964-.018a6.949 6.949 0 007.735-5.266 6.946 6.946 0 00-.038-3.387 156.614 156.614 0 01-3.168-50.58c3.264-30.232 15.914-52.81 37.661-67.302a32.697 32.697 0 007.986 21.461c1.993 2.423 28.889 36.68 2.997 89.184a6.937 6.937 0 00.17 6.468 6.94 6.94 0 005.429 3.52c.275.024 27.675 2.862 44.721 34.239a59.01 59.01 0 0021.509 22.672c.074.041.147.087.221.132-13.37 6.107-34.978 13.139-56.924 8.327-19.708-4.312-36.32-17.45-49.369-39.064a6.944 6.944 0 00-7.228-3.233c-2.283.427-56.138 10.905-71.57 44.561-5.132 11.215-5.444 23.467-.961 36.563a51.935 51.935 0 01-18.858-11.478 36.748 36.748 0 01-9.004-14.219 6.951 6.951 0 00-3.457-4.062 6.96 6.96 0 00-2.617-.737 6.942 6.942 0 00-7.462 6.429c-.065.913.051 1.83.342 2.698a50.42 50.42 0 0012.301 19.632c39.597 40.223 160.417 20.928 225.327 10.562 5.508-.88 10.47-1.673 14.758-2.321a569.22 569.22 0 0159.897-5.424 267.324 267.324 0 0169.124 6.159c8.165 1.804 17.12 3.364 26.617 4.631 14.504 1.934 18.454 5.487 21.453 11.228a46.952 46.952 0 01-10.043 2.052c-5.529.54-11.104.41-16.602-.386a192.926 192.926 0 00-106.188 16.867 172.438 172.438 0 00-59.24 47.45c-15.081 18.526-57.072 61.675-121.091 62.186a6.941 6.941 0 00-6.801 6.971 6.943 6.943 0 006.857 6.917h.057c69.917-.556 115.429-47.255 131.748-67.306a158.679 158.679 0 0154.468-43.688 178.552 178.552 0 0198.336-15.632 83.228 83.228 0 0019.949.43 55.729 55.729 0 0015.312-3.568c33.911 11.354 43.905 36.542 46.721 53.006a76.482 76.482 0 00-40.763-13.103h-.082c-77.113-6.722-141.409 52.128-146.375 56.798-57.394 46.202-150.891 57.893-151.823 58.008a9.958 9.958 0 00-.411.062l-48.418 8.772c-2.603.394-23.597 4.192-51.675 27.557a186.596 186.596 0 00-24.935 25.409zm396.308-107.601a312.654 312.654 0 01-60.613 39.308 151.127 151.127 0 0013.987-28.959 6.945 6.945 0 00-9.442-8.688 6.939 6.939 0 00-3.598 3.911c-13.961 38.117-32.464 47.659-32.928 47.889-.061.028-.11.072-.17.1a390.521 390.521 0 01-38.924 12.774 107.293 107.293 0 0018.709-35.364c12.135-37.193 25.251-49.798 27.189-51.509a225.318 225.318 0 0148.382-25.181 117.28 117.28 0 00-10.844 19.388 6.76 6.76 0 00-.233 5.341 6.756 6.756 0 003.723 3.838 8.046 8.046 0 009.181-3.49c11.656-25.943 24.409-31.946 26.456-32.771a134.212 134.212 0 0135.559-1.717c.252.023.528.029.784.027h.187a81.823 81.823 0 00-9.673 22.63 84.118 84.118 0 01-17.732 32.473zm-201.293 79.038a65.48 65.48 0 0010.448-16.641c.033-.078.067-.16.098-.238.07-.174 6.761-16.863 16.218-27.37a262.958 262.958 0 0056.857-30.566 239.003 239.003 0 00-8.508 22.432c-12.33 37.801-34.571 46.101-36.893 46.875a434.843 434.843 0 01-38.22 5.514v-.006zm-141.755.015c15.206-9.011 25.101-10.628 25.417-10.676.047 0 .09-.026.138-.032.047-.007.115-.001.174-.017l44.303-8.027a61 61 0 01-17.834 19.464c-10.189-.431-30.973-1.131-52.198-.706v-.006zm72.058 1.769a73.142 73.142 0 0014.617-23.171 434.038 434.038 0 0059.535-14.781 136.205 136.205 0 00-6.775 14.054c-7.263 16.452-18.944 22.48-22.171 23.882-14.41.663-29.47.723-45.21.022l.004-.006zm336.828-97.753a22.25 22.25 0 01-12.523 3.554h-17.204a55.052 55.052 0 00-11.402 1.232 92.905 92.905 0 006.414-16.664c3.9-14.165 9.374-21.207 11.759-23.757a60.343 60.343 0 0127.314 16.629c1.228 2.87 4.693 12.897-4.362 19.013l.004-.007z" fill="#0D2936" fill-opacity=".1"/><path d="M186.836 249.227a6.94 6.94 0 005.31-.239 6.939 6.939 0 003.581-3.928c.397-1.095.824-2.18 1.283-3.254a6.952 6.952 0 00.05-5.315 6.95 6.95 0 00-11.303-2.36 6.941 6.941 0 00-1.527 2.239 76.868 76.868 0 00-1.562 3.966 6.954 6.954 0 00.242 5.309 6.935 6.935 0 003.926 3.582zm181.397 137.278a6.89 6.89 0 004.053-1.31l6.643-4.783a6.945 6.945 0 00-8.119-11.269l-6.641 4.784a6.938 6.938 0 00-2.551 7.77 6.944 6.944 0 006.615 4.808zm-118.229-4.783a6.946 6.946 0 10-.002-13.892 6.946 6.946 0 00.002 13.892zm-74.813 53.245a6.94 6.94 0 00-3.724 1.545 6.945 6.945 0 103.724-1.545zm-35.743-80.274a6.946 6.946 0 106.81 10.185 6.948 6.948 0 00-4.112-9.921 6.934 6.934 0 00-2.698-.264z" fill="#0D2936" fill-opacity=".1"/></svg>

<svg width="698" height="698" viewBox="0 0 698 698" fill="none" xmlns="http://www.w3.org/2000/svg">
<path d="M624.509 319.682C624.438 316.336 623.519 313.063 621.84 310.168C617.118 301.942 606.73 296.707 590.988 294.607C581.879 293.392 573.314 291.903 565.532 290.183C541.676 284.872 517.23 282.692 492.81 283.7C472.266 284.472 451.776 286.331 431.427 289.267C427.116 289.922 422.109 290.721 416.558 291.61C375.335 298.191 291.466 311.579 239.373 301.259C232.296 287.898 231.077 275.96 235.753 265.743C245.907 243.552 280.286 233.156 292.733 230.056C307.467 252.567 326.196 266.42 348.446 271.257C389.831 280.251 427.95 254.628 429.553 253.536C430.777 252.698 431.701 251.491 432.189 250.091C432.677 248.691 432.705 247.171 432.267 245.754C431.829 244.337 430.949 243.097 429.756 242.217C428.563 241.336 427.119 240.86 425.636 240.859C421.875 240.594 418.248 239.358 415.107 237.272C408.178 233.062 402.511 227.064 398.702 219.907C384.52 193.777 364.048 184.036 352.289 180.468C376.222 123.143 345.103 85.6751 343.701 84.0389L343.51 83.8336C336.005 75.7491 340.226 61.0932 340.265 60.97C340.658 59.6798 340.667 58.3031 340.29 57.008C339.914 55.7128 339.169 54.5552 338.146 53.6765C337.122 52.7978 335.866 52.2361 334.528 52.0599C333.191 51.8837 331.832 52.1007 330.616 52.6843C297.563 68.5063 277.882 97.9825 273.69 137.922C272.199 153.084 272.734 168.377 275.281 183.397C259.337 182.327 243.33 182.671 227.447 184.424C221.169 185.04 101.988 197.817 49.0918 292.012C25.8114 333.469 23.6353 383.243 43.2656 425.154C59.2785 459.347 85.7512 485.66 121.984 503.504C111.394 514.716 102.699 527.577 96.2417 541.582C73.8256 590.146 26.4417 583.021 24.4503 582.694C22.982 582.446 21.4727 582.676 20.1452 583.351C18.8177 584.026 17.7423 585.11 17.0777 586.443C16.413 587.775 16.1944 589.286 16.454 590.753C16.7136 592.219 17.4377 593.563 18.5194 594.587C41.0443 615.896 69.7793 628.45 97.7239 626.475C150.747 622.729 194.149 576.923 210.336 557.211C217.002 548.985 224.405 541.384 232.452 534.503C232.754 534.533 233.058 534.544 233.362 534.534C267.069 532.385 310.298 534.719 310.626 534.74C311.768 534.82 312.884 534.875 314.022 534.945C301.109 544.1 290.437 556.06 282.807 569.929C271.653 589.939 243.076 631.723 198.862 632.02C206.823 626.007 213.046 617.99 216.897 608.787C220.748 599.584 222.089 589.524 220.783 579.633C220.697 578.715 220.43 577.824 219.996 577.01C219.562 576.197 218.97 575.478 218.255 574.896C217.54 574.314 216.717 573.88 215.833 573.619C214.948 573.358 214.021 573.276 213.105 573.378C212.188 573.479 211.301 573.762 210.496 574.209C209.69 574.657 208.981 575.261 208.411 575.985C207.841 576.71 207.42 577.54 207.175 578.429C206.929 579.318 206.863 580.246 206.979 581.161C208.29 591.524 205.864 602.015 200.135 610.75C193.933 619.614 184.853 626.058 174.438 628.986C172.918 629.308 171.551 630.131 170.553 631.322C169.556 632.513 168.987 634.004 168.937 635.557C168.887 637.11 169.359 638.634 170.278 639.887C171.197 641.14 172.509 642.049 174.005 642.468C182.08 644.773 190.432 645.96 198.829 645.997C250.122 645.997 282.413 599.161 294.94 576.683C302.23 563.316 312.8 552.021 325.656 543.863C330.523 540.863 335.629 538.268 340.922 536.105C341.004 536.07 341.071 536.019 341.151 535.982C343.323 536.008 345.497 536.039 347.645 536.039C488.464 536.039 573.594 477.824 605.164 451.16C612.675 444.811 622.188 441.321 632.022 441.306H649.216C656.425 441.403 663.497 439.336 669.519 435.373C684.83 425.035 682.705 408.358 678.932 399.535C679.195 388.919 677.507 339.049 624.509 319.682ZM199.603 548.4C187.873 562.682 145.8 609.534 96.8514 612.616C77.9315 613.807 59.7281 608.34 42.5244 596.344C62.3825 593.994 91.9777 583.965 108.91 547.279C109.097 546.852 128.013 504.409 157.625 497.007C159.398 496.548 160.919 495.407 161.856 493.832C162.792 492.258 163.068 490.377 162.624 488.599C162.18 486.822 161.052 485.292 159.485 484.342C157.918 483.393 156.039 483.101 154.258 483.531C146.745 485.512 139.68 488.913 133.445 493.549C97.3647 477.109 71.241 452.144 55.8439 419.264C38.1065 381.401 40.1102 336.374 61.2021 298.816C110.77 210.539 227.696 198.353 228.87 198.242C228.901 198.242 228.927 198.228 228.958 198.223C228.989 198.219 229.018 198.223 229.046 198.223C229.342 198.189 258.646 194.721 283.01 198.205C284.145 198.366 285.302 198.243 286.379 197.848C287.455 197.454 288.417 196.799 289.179 195.942C289.94 195.086 290.479 194.054 290.745 192.939C291.012 191.824 290.999 190.66 290.707 189.552C286.912 172.975 285.842 155.892 287.539 138.972C290.803 108.74 303.453 86.1616 325.2 71.6699C325.188 79.5525 328.024 87.174 333.186 93.1314C335.179 95.5539 362.075 129.811 336.183 182.315C335.684 183.326 335.439 184.443 335.469 185.57C335.498 186.697 335.802 187.8 336.353 188.783C336.904 189.766 337.686 190.601 338.632 191.214C339.578 191.827 340.659 192.201 341.782 192.303C342.057 192.327 369.457 195.165 386.503 226.542C391.505 235.895 398.935 243.727 408.012 249.214C408.086 249.255 408.159 249.301 408.233 249.346C394.863 255.453 373.255 262.485 351.309 257.673C331.601 253.361 314.989 240.223 301.94 218.609C301.208 217.398 300.124 216.44 298.832 215.862C297.54 215.284 296.103 215.114 294.712 215.376C292.429 215.803 238.574 226.281 223.142 259.937C218.01 271.152 217.698 283.404 222.181 296.5C215.145 294.07 208.714 290.155 203.323 285.022C199.262 281.043 196.18 276.175 194.319 270.803C194.039 269.932 193.589 269.124 192.996 268.427C192.403 267.73 191.678 267.157 190.862 266.741C190.047 266.326 189.157 266.075 188.245 266.004C187.332 265.934 186.415 266.044 185.545 266.329C184.675 266.615 183.87 267.069 183.177 267.667C182.483 268.264 181.915 268.993 181.504 269.811C181.093 270.629 180.848 271.52 180.783 272.433C180.718 273.346 180.834 274.263 181.125 275.131C183.646 282.541 187.857 289.262 193.426 294.763C233.023 334.986 353.843 315.691 418.753 305.325C424.261 304.445 429.223 303.652 433.511 303.004C453.367 300.142 473.361 298.331 493.408 297.58C516.619 296.621 539.856 298.691 562.532 303.739C570.697 305.543 579.652 307.103 589.149 308.37C603.653 310.304 607.603 313.857 610.602 319.598C607.339 320.646 603.972 321.335 600.559 321.65C595.03 322.19 589.455 322.06 583.957 321.264C547.678 316.71 510.851 322.56 477.769 338.131C454.743 349.352 434.506 365.561 418.529 385.581C403.448 404.107 361.457 447.256 297.438 447.767C295.617 447.804 293.883 448.556 292.611 449.86C291.339 451.165 290.63 452.916 290.637 454.738C290.644 456.56 291.367 458.306 292.65 459.6C293.932 460.894 295.672 461.632 297.494 461.655H297.551C367.468 461.099 412.98 414.4 429.299 394.349C443.986 375.923 462.592 360.999 483.767 350.661C514.4 336.231 548.505 330.81 582.103 335.029C588.711 335.972 595.409 336.116 602.052 335.459C607.299 334.999 612.455 333.798 617.364 331.891C651.275 343.245 661.269 368.433 664.085 384.897C652.022 376.738 637.88 372.191 623.322 371.794H623.24C546.127 365.072 481.831 423.922 476.865 428.592C419.471 474.794 325.974 486.485 325.042 486.6C324.907 486.617 324.767 486.639 324.631 486.662L276.213 495.434C273.61 495.828 252.616 499.626 224.538 522.991C215.436 530.646 207.086 539.155 199.603 548.4ZM595.911 440.799C577.294 456.2 556.953 469.39 535.298 480.107C540.977 470.979 545.666 461.271 549.285 451.148C549.918 449.419 549.839 447.509 549.064 445.838C548.289 444.167 546.883 442.873 545.153 442.239C544.297 441.926 543.387 441.784 542.476 441.821C541.565 441.859 540.67 442.076 539.843 442.46C538.172 443.235 536.878 444.641 536.245 446.371C522.284 484.488 503.781 494.03 503.317 494.26C503.256 494.288 503.207 494.332 503.147 494.36C490.405 499.296 477.412 503.56 464.223 507.134C472.622 496.623 478.968 484.626 482.932 471.77C495.067 434.577 508.183 421.972 510.121 420.261C525.169 409.939 541.415 401.484 558.503 395.08C554.283 401.185 550.652 407.677 547.659 414.468C547.259 415.296 547.031 416.196 546.991 417.115C546.951 418.033 547.099 418.95 547.426 419.809C547.753 420.669 548.251 421.452 548.892 422.112C549.532 422.772 550.3 423.294 551.149 423.647C552.85 424.161 554.673 424.098 556.334 423.467C557.995 422.835 559.4 421.671 560.33 420.157C571.986 394.214 584.739 388.211 586.786 387.386C598.51 385.237 610.468 384.66 622.345 385.669C622.597 385.692 622.873 385.698 623.129 385.696H623.316C618.969 392.709 615.708 400.338 613.643 408.326C610.215 420.332 604.159 431.425 595.911 440.799ZM394.618 519.837C398.918 514.847 402.44 509.237 405.066 503.196C405.099 503.118 405.133 503.036 405.164 502.958C405.234 502.784 411.925 486.095 421.382 475.588C441.518 467.773 460.614 457.507 478.239 445.022C475.029 452.352 472.19 459.839 469.731 467.454C457.401 505.255 435.16 513.555 432.838 514.329C420.723 516.631 408.001 518.513 394.618 519.843V519.837ZM252.863 519.852C268.069 510.841 277.964 509.224 278.28 509.176C278.327 509.176 278.37 509.15 278.418 509.144C278.465 509.137 278.533 509.143 278.592 509.127L322.895 501.1C318.442 508.812 312.355 515.456 305.061 520.564C294.872 520.133 274.088 519.433 252.863 519.858V519.852ZM324.921 521.621C331.209 514.887 336.169 507.025 339.538 498.45C359.707 494.933 379.602 489.994 399.073 483.669C396.548 488.22 394.286 492.913 392.298 497.723C385.035 514.175 373.354 520.203 370.127 521.605C355.717 522.268 340.657 522.328 324.917 521.627L324.921 521.621ZM661.749 423.868C658.022 426.275 653.661 427.512 649.226 427.422H632.022C628.189 427.435 624.368 427.847 620.62 428.654C623.288 423.318 625.436 417.738 627.034 411.99C630.934 397.825 636.408 390.783 638.793 388.233C649.228 391.219 658.664 396.964 666.107 404.862C667.335 407.732 670.8 417.759 661.745 423.875L661.749 423.868Z" fill="#0D2936" fill-opacity="0.1"/>
<path d="M186.836 249.227C187.693 249.538 188.603 249.678 189.515 249.637C190.426 249.596 191.32 249.375 192.146 248.988C192.972 248.601 193.713 248.055 194.328 247.381C194.942 246.706 195.418 245.918 195.727 245.06C196.124 243.965 196.551 242.88 197.01 241.806C197.367 240.967 197.555 240.065 197.564 239.154C197.572 238.242 197.401 237.337 197.06 236.491C196.719 235.646 196.215 234.875 195.577 234.224C194.938 233.573 194.177 233.055 193.338 232.698C192.499 232.341 191.598 232.153 190.686 232.144C189.774 232.135 188.87 232.306 188.024 232.647C187.178 232.988 186.408 233.493 185.757 234.131C185.106 234.77 184.587 235.53 184.23 236.37C183.672 237.681 183.148 239.008 182.668 240.336C182.358 241.193 182.22 242.103 182.261 243.014C182.303 243.925 182.523 244.819 182.91 245.645C183.297 246.47 183.843 247.212 184.517 247.826C185.19 248.441 185.978 248.917 186.836 249.227Z" fill="#0D2936" fill-opacity="0.1"/>
<path d="M368.233 386.505C369.689 386.507 371.107 386.049 372.286 385.195L378.929 380.412C380.397 379.325 381.378 377.704 381.659 375.899C381.94 374.095 381.499 372.252 380.432 370.77C379.364 369.288 377.755 368.287 375.955 367.982C374.154 367.678 372.305 368.095 370.81 369.143L364.169 373.927C362.976 374.785 362.086 376 361.628 377.396C361.169 378.793 361.166 380.299 361.618 381.697C362.07 383.096 362.954 384.315 364.142 385.179C365.331 386.043 366.764 386.507 368.233 386.505Z" fill="#0D2936" fill-opacity="0.1"/>
<path d="M250.004 381.722C253.839 381.722 256.949 378.612 256.949 374.777C256.949 370.941 253.839 367.832 250.004 367.832C246.168 367.832 243.059 370.941 243.059 374.777C243.059 378.612 246.168 381.722 250.004 381.722Z" fill="#0D2936" fill-opacity="0.1"/>
<path d="M175.191 434.967C173.824 435.102 172.528 435.64 171.467 436.512C170.405 437.383 169.626 438.55 169.228 439.865C168.83 441.179 168.83 442.582 169.229 443.896C169.628 445.211 170.408 446.377 171.47 447.248C172.532 448.119 173.828 448.656 175.195 448.79C176.562 448.924 177.938 448.65 179.149 448.003C180.361 447.355 181.353 446.363 182 445.152C182.647 443.94 182.921 442.564 182.786 441.198C182.697 440.29 182.43 439.408 181.999 438.604C181.569 437.799 180.985 437.087 180.279 436.509C179.574 435.93 178.762 435.496 177.888 435.231C177.015 434.967 176.098 434.877 175.191 434.967Z" fill="#0D2936" fill-opacity="0.1"/>
<path d="M139.448 354.693C138.082 354.828 136.786 355.366 135.724 356.237C134.663 357.109 133.884 358.276 133.486 359.591C133.088 360.905 133.088 362.308 133.487 363.622C133.886 364.936 134.666 366.103 135.728 366.974C136.79 367.845 138.086 368.382 139.453 368.516C140.82 368.65 142.196 368.376 143.407 367.729C144.618 367.081 145.61 366.089 146.258 364.878C146.905 363.666 147.179 362.29 147.044 360.923C146.955 360.015 146.688 359.134 146.258 358.329C145.828 357.524 145.243 356.812 144.538 356.234C143.832 355.655 143.02 355.221 142.146 354.957C141.273 354.692 140.356 354.603 139.448 354.693Z" fill="#0D2936" fill-opacity="0.1"/>
</svg>
